X:1
T:Kalorama, 87.87 D
T:Kalorama, 87.87 D
T:Edmund Sykes Lamplough (1860-1940)
T:Public Domain Courtesy of the Cyber Hymnal™
C:Edmund Sykes Lamplough (1860-1940)
Z:Public Domain
Z:Courtesy of the Cyber Hymnal™
%%score ( 1 2 ) ( 3 4 )
L:1/8
Q:1/4=85
M:4/4
K:D
V:1 treble 
V:2 treble 
V:3 bass 
V:4 bass 
V:1
 [F,D]>[F,E] | FFFF FEEF | G>G AB [EA]2 | [DB][Ec] | ddFF [B,B][CB]AF | EFEB [CA]2 FE | %6
 DFAd dccd x2 | dc[EA][DG] [CF]2 GF | FEcB BADF | AF E z/ D/ D2 |] %10
V:2
 x2 | A,2 A,2 B,4- | B,4 x2 | x2 | D2 C2 x D2 x | D4 x C2 x | D4 G4 x2 | G2 x3 ^D2 x | B,2 C2 D4- | %9
 D3 C D2 |] %10
V:3
 D,2 | z2 F,2 G,3 F, | E,2 G,2- G,E, | A,G, | F,4 D,E,F,A, | ^G,4 [A,,A,]2 [A,,=G,]2 | %6
 F, z z A, A,4 x2 | [C,A,]3 [B,,B,] [_B,,C]2 [A,,A,=B,]2 | [G,,G,B,]2 [E,,E,G,]2 F,4- | %9
 F,2 G,2 [D,,D,F,]2 |] %10
V:4
 x2 | D,8- | D,4 C,2 | A,,2 | B,,2 A,,2 G,,2 F,,2 | B,,2 E,2 x4 | D,2 A,2 F,2 E,3 D, | x8 | %8
 x4 F,,2 B,,2 | A,,4 x2 |] %10

